!!!OTL: LASS DIE TOEN ERKLINGEN
!!!ARE: Europa, Mitteleuropa, Deutschland
!!!SCT: F0237
!!!YEM: Copyright 1995, estate of Helmut Schaffrath.
**kern
*ICvox
*Ivox
*M2/4
*k[b-]
*F:
=1
{8a
8a
8a
8a
=2
8.cc
16b-
4a}
=3
{8cc
8a
8b-
8g
=4
4a
4r}
=5
{8b-
8b-
8a
8a
=6
8.dd
16ee
4ff}
=7
{8cc
8a
8b-
8g
=8
4f
4r}
==
!!!AGN: Jugend - Lied, Geschwister - Liebe
!!!ONB: ESAC (Essen Associative Code) Database: FINK
!!!AMT: simple duple
!!!AIN: vox
!!!EED: Helmut Schaffrath
!!!EEV: 1.0
*-
